icons/arrow-square-downleft.svg

<svg width="24" height="24" viewBox="0 0 24 24" fill="none" xmlns="http://www.w3.org/2000/svg">
<path fill-rule="evenodd" clip-rule="evenodd" d="M15 20.25C17.8858 20.25 20.25 17.8858 20.25 15L20.25 9C20.25 6.11421 17.8858 3.75 15 3.75L9 3.75C6.21421 3.75 3.75 6.21421 3.75 9L3.75 15C3.75 17.8858 6.11421 20.25 9 20.25L15 20.25ZM21.75 15C21.75 18.7142 18.7142 21.75 15 21.75L9 21.75C5.28579 21.75 2.25 18.7142 2.25 15L2.25 9C2.25 5.38578 5.38579 2.25 9 2.25L15 2.25C18.7142 2.25 21.75 5.28579 21.75 9L21.75 15Z" fill="black"/>
<path fill-rule="evenodd" clip-rule="evenodd" d="M14.8504 9.16242C15.1433 9.45531 15.1433 9.93019 14.8504 10.2231L10.1835 14.89C9.89061 15.1829 9.41573 15.1829 9.12284 14.89C8.82995 14.5971 8.82995 14.1222 9.12284 13.8293L13.7897 9.16242C14.0826 8.86953 14.5575 8.86953 14.8504 9.16242Z" fill="black"/>
<path fill-rule="evenodd" clip-rule="evenodd" d="M14.3629 14.6426C14.3629 15.0568 14.0271 15.3926 13.6129 15.3926L10.0774 15.3926C9.38033 15.3926 8.83242 14.8447 8.83242 14.1476L8.83242 10.6121C8.83242 10.1979 9.1682 9.86207 9.58242 9.86207C9.99663 9.86207 10.3324 10.1979 10.3324 10.6121L10.3324 13.8926L13.6129 13.8926C14.0271 13.8926 14.3629 14.2284 14.3629 14.6426Z" fill="black"/>
</svg>

<svg xmlns="http://www.w3.org/2000/svg" fill="none" viewBox="0 0 24 24">
  <path fill="#000" fill-rule="evenodd" d="M15 20.25c2.886 0 5.25-2.364 5.25-5.25V9c0-2.886-2.364-5.25-5.25-5.25H9C6.214 3.75 3.75 6.214 3.75 9v6c0 2.886 2.364 5.25 5.25 5.25h6ZM21.75 15c0 3.714-3.036 6.75-6.75 6.75H9c-3.714 0-6.75-3.036-6.75-6.75V9c0-3.614 3.136-6.75 6.75-6.75h6c3.714 0 6.75 3.036 6.75 6.75v6Z" clip-rule="evenodd"/>
  <path fill="#000" fill-rule="evenodd" d="M14.85 9.162a.75.75 0 0 1 0 1.061l-4.666 4.667a.75.75 0 1 1-1.061-1.06l4.667-4.668a.75.75 0 0 1 1.06 0Z" clip-rule="evenodd"/>
  <path fill="#000" fill-rule="evenodd" d="M14.363 14.643a.75.75 0 0 1-.75.75h-3.536a1.233 1.233 0 0 1-1.245-1.245v-3.536a.75.75 0 0 1 1.5 0v3.28h3.28a.75.75 0 0 1 .75.75Z" clip-rule="evenodd"/>
</svg>
